Simply-Black-Circles/scalable/panel/indicator-messages.svg

<svg xmlns="http://www.w3.org/2000/svg" width="24" height="24" viewBox="0 0 6.35 6.35"><path d="M3.17.7A2.5 2.5 0 0 0 .97 2l2.15 2.12h.2l2.09-2.04A2.5 2.5 0 0 0 3.17.69zM.83 2.3a2.5 2.5 0 0 0-.17.89A2.5 2.5 0 0 0 1 4.43l.99-.98L.83 2.31zm4.71.1L4.49 3.45l.9.9a2.5 2.5 0 0 0 .28-1.15 2.5 2.5 0 0 0-.13-.8zM2.22 3.68L1.18 4.71a2.5 2.5 0 0 0 1.99 1 2.5 2.5 0 0 0 2.05-1.07l-.98-.96-.77.77H3l-.77-.77z" fill="#1a1a1a"/></svg>

<?xml version="1.0" encoding="UTF-8" standalone="no"?>
<svg
   xmlns:dc="http://purl.org/dc/elements/1.1/"
   xmlns:cc="http://creativecommons.org/ns#"
   xmlns:rdf="http://www.w3.org/1999/02/22-rdf-syntax-ns#"
   xmlns:svg="http://www.w3.org/2000/svg"
   xmlns="http://www.w3.org/2000/svg"
   xmlns:sodipodi="http://sodipodi.sourceforge.net/DTD/sodipodi-0.dtd"
   xmlns:inkscape="http://www.inkscape.org/namespaces/inkscape"
   width="24"
   height="24"
   viewBox="0 0 6.35 6.35"
   version="1.1"
   id="svg4"
   sodipodi:docname="indicator-messages.svg"
   inkscape:version="0.92.4 (5da689c313, 2019-01-14)">
  <metadata
     id="metadata10">
    <rdf:RDF>
      <cc:Work
         rdf:about="">
        <dc:format>image/svg+xml</dc:format>
        <dc:type
           rdf:resource="http://purl.org/dc/dcmitype/StillImage" />
        <dc:title></dc:title>
      </cc:Work>
    </rdf:RDF>
  </metadata>
  <defs
     id="defs8" />
  <sodipodi:namedview
     pagecolor="#ffffff"
     bordercolor="#666666"
     borderopacity="1"
     objecttolerance="10"
     gridtolerance="10"
     guidetolerance="10"
     inkscape:pageopacity="0"
     inkscape:pageshadow="2"
     inkscape:window-width="1087"
     inkscape:window-height="480"
     id="namedview6"
     showgrid="false"
     inkscape:zoom="9.8333333"
     inkscape:cx="1.0677966"
     inkscape:cy="12"
     inkscape:window-x="0"
     inkscape:window-y="25"
     inkscape:window-maximized="0"
     inkscape:current-layer="svg4" />
  <path
     d="M 3.17,0.7 A 2.5,2.5 0 0 0 0.97,2 l 2.15,2.12 h 0.2 L 5.41,2.08 A 2.5,2.5 0 0 0 3.17,0.69 Z M 0.83,2.3 A 2.5,2.5 0 0 0 0.66,3.19 2.5,2.5 0 0 0 1,4.43 L 1.99,3.45 0.83,2.31 Z m 4.71,0.1 -1.05,1.05 0.9,0.9 A 2.5,2.5 0 0 0 5.67,3.2 2.5,2.5 0 0 0 5.54,2.4 Z M 2.22,3.68 1.18,4.71 a 2.5,2.5 0 0 0 1.99,1 2.5,2.5 0 0 0 2.05,-1.07 L 4.24,3.68 3.47,4.45 H 3 L 2.23,3.68 Z"
     id="path2"
     inkscape:connector-curvature="0"
     style="fill:#1a1a1a" />
</svg>
